icons/info-square.svg

<svg width="24" height="24" viewBox="0 0 24 24" fill="none" xmlns="http://www.w3.org/2000/svg">
<path fill-rule="evenodd" clip-rule="evenodd" d="M9 3.75C6.11421 3.75 3.75 6.11421 3.75 9V15C3.75 17.8858 6.11421 20.25 9 20.25H15C17.8858 20.25 20.25 17.8858 20.25 15V9C20.25 6.11421 17.8858 3.75 15 3.75H9ZM2.25 9C2.25 5.28579 5.28579 2.25 9 2.25H15C18.7142 2.25 21.75 5.28579 21.75 9V15C21.75 18.7142 18.7142 21.75 15 21.75H9C5.28579 21.75 2.25 18.7142 2.25 15V9Z" fill="black"/>
<path d="M11.8 10C12.2 10 12.6 10.3 12.6 10.8L12.6 16.8C12.6 17.2 12.3 17.5 11.8 17.5C11.3 17.5 11 17.2 11 16.7L11 10.7C11.1 10.3 11.4 10 11.8 10Z" fill="black"/>
<path d="M11.8 7.00003C11.9 7.00003 12 7.00003 12.1 7.10003C12.2 7.10003 12.3 7.20003 12.3 7.30003C12.3 7.40003 12.5 7.40003 12.5 7.50003C12.6 7.60003 12.6 7.70003 12.6 7.70003C12.6 7.80003 12.6 7.90003 12.5 8.00003C12.5 8.10003 12.4 8.20003 12.3 8.20003C12.2 8.30003 12.1 8.30003 12.1 8.40003C11.8 8.50003 11.5 8.50003 11.3 8.20003C11.2 8.10003 11.2 8.10003 11.1 8.00003C11.1 7.90003 11 7.80003 11 7.70003C11 7.50003 11.1 7.30003 11.2 7.20003C11.5 7.10003 11.6 7.00003 11.8 7.00003Z" fill="black"/>
</svg>

<svg xmlns="http://www.w3.org/2000/svg" fill="none" viewBox="0 0 24 24">
  <path fill="#000" fill-rule="evenodd" d="M9 3.75C6.114 3.75 3.75 6.114 3.75 9v6c0 2.886 2.364 5.25 5.25 5.25h6c2.886 0 5.25-2.364 5.25-5.25V9c0-2.886-2.364-5.25-5.25-5.25H9ZM2.25 9c0-3.714 3.036-6.75 6.75-6.75h6c3.714 0 6.75 3.036 6.75 6.75v6c0 3.714-3.036 6.75-6.75 6.75H9c-3.714 0-6.75-3.036-6.75-6.75V9Z" clip-rule="evenodd"/>
  <path fill="#000" d="M11.8 10c.4 0 .8.3.8.8v6c0 .4-.3.7-.8.7s-.8-.3-.8-.8v-6c.1-.4.4-.7.8-.7Zm0-3c.1 0 .2 0 .3.1.1 0 .2.1.2.2s.2.1.2.2c.1.1.1.2.1.2 0 .1 0 .2-.1.3 0 .1-.1.2-.2.2-.1.1-.2.1-.2.2-.3.1-.6.1-.8-.2l-.2-.2c0-.1-.1-.2-.1-.3 0-.2.1-.4.2-.5.3-.1.4-.2.6-.2Z"/>
</svg>
